X:1
T:What a Change
T:What a Change
T:Charles Hutchinson Gabriel
T:Civilla Durfee Martin, 1906
T:Public Domain Courtesy of the Cyber Hymnal™
T:Public Domain Courtesy of the Cyber Hymnal™
C:Charles Hutchinson Gabriel
Z:Public Domain
Z:Courtesy of the Cyber Hymnal™
%%score ( 1 2 ) ( 3 4 )
L:1/8
Q:1/4=97
M:4/4
K:Bb
V:1 treble 
V:2 treble 
V:3 bass 
V:4 bass 
V:1
 [DB]2 [EA]>[EG] [DF]2 [^C=E]>[DF] | [^CG]2 [CA]>[CG] [DF]4 | [CE]2 [A,F]>[CE] [B,D]2 [FB]>[FA] | %3
w: 1.~O what a change! From the|dark- ness of night|In- to the blaze of the|
w: 2.~O what a change! From my|hun- ger for bread|In- to the place where God’s|
w: 3.~O what a change! From my|bur- den of care|In- to the love He in-|
w: 4.~O what a change! In the|flash of an eye,|When we shall meet with our|
 [EG]2 [=Ec]>[Ed] [_Ec]4 | [DB]2 [EA]>[EG] [DF]2 [^C=E]>[DF] | [^CG]2 [CA]>[CG] [DF]4 | %6
w: clear shin- ing light;|Out of my weak- ness to|pow- er and might,|
w: child- ren are fed;|In- to the bless- ing of|life from the dead,|
w: vites me to share;|In- to His joy from the|sor- row I bear,|
w: Lord by and by;|In- to a realm where we|ne- ver shall die,|
 [CF]2 [C=E]>[CF] [EG]4 | [=Ec]2 [EG]>[Ed] [_Ec]4 ||"^Refrain" [Fd]2 [Ec]>[DB] [Fd]2 [Fc][FB] | %9
w: O what a change!|O what a change!||
w: O what a change!|O what a change!||
w: O what a change!|O what a change!||
w: O what a change!|O what a change!||
 [GB]2 [FA]>[EG] [DF]4 | [EG]2 [E^F]>[EG] [=Ec]4 | [Fd]2 [Fc]>F [Ff]4 | [Fd]2 [Ec]>[DB] | %13
w: ||||
w: ||||
w: ||||
w: ||||
 [Fd]2 [Fc][FB] | [GB]2 [FA]>[EG] [DF]4 | [EG]2 [E^F]>[EG] [=Ec]4 | [_Ed]2 [Ec]>[EF] x4 | [DB]4 |] %18
w: |||||
w: |||||
w: |||||
w: |||||
V:2
 x8 | x8 | x8 | x8 | x8 | x8 | x8 | x8 || x8 | x8 | x8 | x7/2 F/ (F2 E2) | x4 | x4 | x8 | x8 | x8 | %17
 x4 |] %18
V:3
 [B,,F,]2 [B,,G,]>[B,,A,] [B,,B,]2 [B,,B,]>[B,,B,] | [B,,B,]2 [B,,B,]>[B,,B,] [B,,B,]4 | %2
w: ~ ~ ~ ~ ~ ~|~ ~ ~ ~|
 [A,,F,]2 [F,,F,]>[F,,F,] [B,,F,]2 [D,B,]>[D,B,] | [E,B,]2 [C,B,]>[C,B,] [F,A,]4 | %4
w: ~ ~ ~ ~ ~ ~|~ ~ ~ ~|
 (B,F,) [B,,G,]>[B,,A,] [B,,B,]2 [B,,B,]>[B,,B,] | [B,,B,]2 [B,,B,]>[B,,B,] [B,,B,]4 | %6
w: ~ * ~ ~ ~ ~ ~|~ ~ ~ ~|
 [C,A,]2 [C,G,]>[C,A,] [C,B,]4 | [C,G,]2 [C,B,]>[C,B,] [F,A,]4 || %8
w: ~ ~ ~ ~|~ ~ ~ ~|
 [B,,B,]2 [B,,F,]>[B,,F,] [B,,B,]2 [C,A,][D,B,] | [E,B,]2 [E,B,]>[E,B,] [B,,B,]4 | %10
w: O what a change in my|heart there has been,|
 [E,B,]2 [E,A,]>[E,B,] [C,B,]4 | [F,B,]2 [E,A,]>[E,A,] ([D,B,]2 [C,A,]2) | %12
w: O what a change!|O what a change! *|
 [B,,B,]2 [B,,F,]>[B,,F,] | [B,,B,]2 [C,A,][D,B,] | [E,B,]2 [E,B,]>[E,B,] [B,,B,]4 | %15
w: O what a|change since the|Sav- ior came in!|
 [E,B,]2 [E,A,]>[E,B,] [C,B,]4 | [F,A,]2 [F,A,]>F, [B,,F,]4 | x4 |] %18
w: O what a change!|O what a change!||
V:4
 x8 | x8 | x8 | x8 | B,,2 x6 | x8 | x8 | x8 || x8 | x8 | x8 | x8 | x4 | x4 | x8 | x8 | %16
 x7/2 F,/ x4 | x4 |] %18

